X:2339
T:Trettondagsmarschen
S:Av Hjort Anders
C:Hjort Ander
Z:[[http://www.bluerose.karenlmyers.org/IncipitsGanglat11.html|Karen Myers (#2339)]]
Z:Upptecknad 5/2005
M:2/4
L:1/16
R:Gånglåt
O:Bingsjö, Dalarna
K:A
Ac |: e2a2 abag | a2f2 f2ed | f2ed f2ed | B4- B2c2 | d2>c2 d2B2 | G2E2 D2C2 |
B,2E2 GABG | AGAB cBcd | e2a2 abag | a2f2 f2ed | f2ed f2ed |
B4- B2c2 | d2>c2 d2B2 | G2E2 D2C2 | B,2E2 GABG |1 A4- A2Ac :|2 A4- A2c2 ||
|: Acec acec | Acec acec | Bege bege | Bege bege |
Acec acec | Acec acec | Bcd2 EGBG |1 A4- A2c2 :|2 A6 z2 |]
